img/work/logo-fairy.svg

<?xml version="1.0" encoding="UTF-8" standalone="no"?>
<svg width="84px" height="20px" viewBox="0 0 84 20" version="1.1" xmlns="http://www.w3.org/2000/svg" xmlns:xlink="http://www.w3.org/1999/xlink">
    <!-- Generator: Sketch 41 (35326) - http://www.bohemiancoding.com/sketch -->
    <title>download</title>
    <desc>Created with Sketch.</desc>
    <defs></defs>
    <g id="Content-real" stroke="none" stroke-width="1" fill="none" fill-rule="evenodd">
        <g id="Work-Copy" transform="translate(-862.000000, -1358.000000)" fill="#FFFFFF">
            <g id="Group-6-Copy" transform="translate(800.000000, 1298.000000)">
                <g id="Group-Copy-21">
                    <g id="Rectangle-124">
                        <g id="download" transform="translate(62.000000, 60.000000)">
                            <g id="Group">
                                <path d="M0,19.7927807 L2.28020434,19.7927807 L2.28020434,11.2299465 L13.2194125,11.2299465 L13.2194125,9.20855615 L2.28020434,9.20855615 L2.28020434,2.18983957 L14.5182631,2.18983957 L14.5182631,0.140374332 L0,0.140374332 L0,19.7927807 Z M38.9693657,19.7927807 L41.24957,19.7927807 L41.24957,0.140374332 L38.9693657,0.140374332 L38.9693657,19.7927807 Z M46.8365517,19.7927807 L49.1167561,19.7927807 L49.1167561,12.1564171 L54.8894253,12.1564171 L60.7486845,19.7927807 L63.5484291,19.7927807 L57.3428097,11.763369 C60.5177778,11.2018717 62.8268455,9.29278075 62.8268455,6.03609626 L62.8268455,5.97994652 C62.8268455,4.43582888 62.2495785,3.06016043 61.2682248,2.10561497 C59.9972754,0.870320856 58.0057046,0.140374332 55.5234568,0.140374332 L46.8355896,0.140374332 L46.8355896,19.7927807 L46.8365517,19.7927807 Z M49.1167561,10.1631016 L49.1167561,2.18983957 L55.3512388,2.18983957 C58.6127969,2.18983957 60.5177778,3.64973262 60.5177778,6.06417112 L60.5177778,6.12032086 C60.5177778,8.64705882 58.3530268,10.1631016 55.3223755,10.1631016 L49.1167561,10.1631016 L49.1167561,10.1631016 Z M72.9771222,19.7927807 L75.2861899,19.7927807 L75.2861899,11.9879679 L83.6844615,0.140374332 L81.0290336,0.140374332 L74.1595573,9.96657754 L67.3478076,0.140374332 L64.5769264,0.140374332 L72.9761601,12.0160428 L72.9761601,19.7927807 L72.9771222,19.7927807 Z" id="Shape"></path>
                                <polygon id="Shape" points="25.8846488 0.913368984 24.1451511 0.913368984 32.804155 19.6299465 35.1170711 19.6299465 25.8846488 0.112299465 24.1451511 0.112299465 14.9127288 19.6299465 17.225645 19.6299465 25.8846488 0.913368984"></polygon>
                            </g>
                        </g>
                    </g>
                </g>
            </g>
        </g>
    </g>
</svg>

<svg width="84" height="20" viewBox="0 0 84 20" xmlns="http://www.w3.org/2000/svg"><title>download</title><g fill="#FFF" fill-rule="evenodd"><path d="M0 19.793h2.28V11.23h10.94V9.209H2.28v-7.02h12.238V.14H0v19.653zm38.97 0h2.28V.14h-2.28v19.653zm7.867 0h2.28v-7.637h5.772l5.86 7.637h2.8l-6.206-8.03c3.175-.561 5.484-2.47 5.484-5.727V5.98c0-1.544-.577-2.92-1.559-3.874C59.998.87 58.006.14 55.523.14h-8.687v19.653zm2.28-9.63V2.19h6.234c3.262 0 5.167 1.46 5.167 3.874v.056c0 2.527-2.165 4.043-5.196 4.043h-6.205zm23.86 9.63h2.31v-7.805L83.683.14H81.03l-6.87 9.827L67.349.14h-2.771l8.4 11.876v7.777zM25.885.913h-1.74l8.66 18.717h2.312L25.885.112h-1.74L14.913 19.63h2.313L25.885.913z"/></g></svg>
